svg/furkot/freepik/rvpark.svg

<svg viewBox="0 0 512 512" xmlns="http://www.w3.org/2000/svg"><path d="m476.789 353.136h-61.27c2.228-6.684 3.342-12.254 3.342-20.052v-111.399c0-80.208-64.611-144.819-144.819-144.819h-129.223c-80.207 0-144.819 64.611-144.819 144.819v111.399c0 28.963 23.394 52.358 52.358 52.358h67.953c0-2.228 0-4.456 0-5.57 0-49.016 40.104-89.12 89.12-89.12 49.015 0 89.119 40.104 89.119 89.12v5.57h178.239c1.114 0 2.228 1.114 2.228 2.228v25.621c0 8.912 7.798 16.71 16.71 16.71s16.71-7.798 16.71-16.71v-25.621c0-18.938-16.71-34.534-35.648-34.534zm-399.923-103.602c-18.938 0-33.42-15.595-33.42-33.419 0-50.13 40.103-90.234 90.233-90.234h60.156v123.653zm266.244 0h-116.969v-123.653h60.155c50.13 0 90.234 40.104 90.234 90.234 0 18.938-15.595 33.419-33.42 33.419z"/></svg>

<svg xmlns="http://www.w3.org/2000/svg" viewBox="0 0 512 512"><path d="M476.789 353.136H415.519C417.747 346.452 418.861 340.882 418.861 333.084V221.685C418.861 141.477 354.25 76.866 274.042 76.866H144.819C64.612 76.866 0 141.477 0 221.685V333.084C0 362.047 23.394 385.442 52.358 385.442H120.311C120.311 383.214 120.311 380.986 120.311 379.872 120.311 330.856 160.415 290.752 209.431 290.752 258.446 290.752 298.55 330.856 298.55 379.872 298.55 382.1 298.55 384.328 298.55 385.442H476.789C477.903 385.442 479.017 386.556 479.017 387.67V413.291C479.017 422.203 486.815 430.001 495.727 430.001S512.437 422.203 512.437 413.291V387.67C512.437 368.732 495.727 353.136 476.789 353.136ZM76.866 249.534C57.928 249.534 43.446 233.939 43.446 216.115 43.446 165.985 83.549 125.881 133.679 125.881H193.835V249.534H76.866ZM343.11 249.534H226.141V125.881H286.296C336.426 125.881 376.53 165.985 376.53 216.115 376.53 235.053 360.935 249.534 343.11 249.534Z"/></svg>
